X: 1
T: Rowing from Islay to Uist
T: Iomramh eadar Il'as Uist
B: Simon Fraser Collection
Z: Nigel Gatherer <gatherer:argonet.co.uk> scots-l 2002-4-28
L: 1/8
M: 6/8
K: Am
E |: A2 A c2 d | B2 A B2 d | A2 A e2 e | fed e2 B |
     c2 c d2 c | B2 A B2 d | fed  e2 B | 1 c2 A GFE :| 2 A2 B c2 ||
G |  E2 E E2 D | E2 E c2 d | B2 A G2 E | D2 C D2F |
     E2 E E2 D | E2 E c2 d | B2 A G2 B | A3-  A2 |]
